X:5007
T:The Wee Lough
C:Aidan Crossey
R:Jig
M:6/8
L:1/8
K:G
|:D2B BAG|B2d dBG|cBA BAG|AGE EGE|
D2B BAG|B2d dBG|cBA BAG|E2F G3:||
|:D2B BAG|BAG BAG|E2c cBA|cBA cBA|
D2B BAG|BAG BAG|cBA BAG|E2F G3:||
|:d2D B2D|c2D A2D|G2A BAG|E2D DED|
d2D B2D|c2D A2D|G2A BAG|E2F G3:||
